Obsidian-SemiLight/actions/16s/view-media-equalizer.svg

<svg viewBox="0 0 16 16" xmlns="http://www.w3.org/2000/svg"><path d="m3 2v1.0917969c-.5819196.2060046-1 .7539662-1 1.4082031s.4180804 1.2021985 1 1.4082031v8.0917969h1v-8.0917969c.5825646-.2056596 1-.7535058 1-1.4082031s-.4174354-1.2025435-1-1.4082031v-1.0917969zm4.5 0v8.091797c-.5819246.206006-1 .753963-1 1.408203s.4180754 1.202197 1 1.408203v1.091797h1v-1.091797c.5819246-.206006 1-.753963 1-1.408203s-.4180754-1.202197-1-1.408203v-8.091797zm4.5 0v4.0917969c-.581925.2060057-1 .7539629-1 1.4082031s.418075 1.2021974 1 1.4082031v5.0917969h1v-5.0917969c.581925-.2060057 1-.7539629 1-1.4082031s-.418075-1.2021974-1-1.4082031v-4.0917969z" fill="#4d4d4d"/></svg>

<svg xmlns="http://www.w3.org/2000/svg" viewBox="0 0 16 16">
  <defs id="defs3051">
    <style type="text/css" id="current-color-scheme">
      .ColorScheme-Text {
        color:#4d4d4d;
      }
      </style>
  </defs>
 <path style="fill:currentColor;fill-opacity:1;stroke:none" 
       d="M 3 2 L 3 3.0917969 C 2.4180804 3.2978015 2 3.8457631 2 4.5 C 2 5.1542369 2.4180804 5.7021985 3 5.9082031 L 3 14 L 4 14 L 4 5.9082031 C 4.5825646 5.7025435 5 5.1546973 5 4.5 C 5 3.8453027 4.5825646 3.2974565 4 3.0917969 L 4 2 L 3 2 z M 7.5 2 L 7.5 10.091797 C 6.9180754 10.297803 6.5 10.84576 6.5 11.5 C 6.5 12.15424 6.9180754 12.702197 7.5 12.908203 L 7.5 14 L 8.5 14 L 8.5 12.908203 C 9.0819246 12.702197 9.5 12.15424 9.5 11.5 C 9.5 10.84576 9.0819246 10.297803 8.5 10.091797 L 8.5 2 L 7.5 2 z M 12 2 L 12 6.0917969 C 11.418075 6.2978026 11 6.8457598 11 7.5 C 11 8.1542402 11.418075 8.7021974 12 8.9082031 L 12 14 L 13 14 L 13 8.9082031 C 13.581925 8.7021974 14 8.1542402 14 7.5 C 14 6.8457598 13.581925 6.2978026 13 6.0917969 L 13 2 L 12 2 z "
     class="ColorScheme-Text"
     />
</svg>
